flaticon/sport/weight.svg

<svg xmlns="http://www.w3.org/2000/svg" width="32" height="32" viewBox="0 0 24 24">
    <path d="M10.800781 11.601562C10.800781 11.820312 10.621094 12 10.398438 12 10.179688 12 10 11.820312 10 11.601562 10 11.378906 10.179688 11.199219 10.398438 11.199219 10.621094 11.199219 10.800781 11.378906 10.800781 11.601562zM12.398438 11.601562C12.398438 11.820312 12.222656 12 12 12 11.777344 12 11.601562 11.820312 11.601562 11.601562 11.601562 11.378906 11.777344 11.199219 12 11.199219 12.222656 11.199219 12.398438 11.378906 12.398438 11.601562zM10 12.398438C10 12.621094 9.820312 12.800781 9.601562 12.800781 9.378906 12.800781 9.199219 12.621094 9.199219 12.398438 9.199219 12.179688 9.378906 12 9.601562 12 9.820312 12 10 12.179688 10 12.398438zM11.601562 12.398438C11.601562 12.621094 11.421875 12.800781 11.199219 12.800781 10.980469 12.800781 10.800781 12.621094 10.800781 12.398438 10.800781 12.179688 10.980469 12 11.199219 12 11.421875 12 11.601562 12.179688 11.601562 12.398438zM13.199219 12.398438C13.199219 12.621094 13.019531 12.800781 12.800781 12.800781 12.578125 12.800781 12.398438 12.621094 12.398438 12.398438 12.398438 12.179688 12.578125 12 12.800781 12 13.019531 12 13.199219 12.179688 13.199219 12.398438zM14.800781 12.398438C14.800781 12.621094 14.621094 12.800781 14.398438 12.800781 14.179688 12.800781 14 12.621094 14 12.398438 14 12.179688 14.179688 12 14.398438 12 14.621094 12 14.800781 12.179688 14.800781 12.398438zM14 11.601562C14 11.820312 13.820312 12 13.601562 12 13.378906 12 13.199219 11.820312 13.199219 11.601562 13.199219 11.378906 13.378906 11.199219 13.601562 11.199219 13.820312 11.199219 14 11.378906 14 11.601562zM1.199219 11.199219L2 11.199219 2 12.800781 1.199219 12.800781zM2.398438 11.199219L3.199219 11.199219 3.199219 12.800781 2.398438 12.800781zM2.398438 11.199219"/>
    <path d="M 23.289062 10 L 22.800781 10 L 22.800781 9.601562 C 22.800781 9.378906 22.621094 9.199219 22.398438 9.199219 C 22.179688 9.199219 22 9.378906 22 9.601562 L 22 10 L 21.601562 10 L 21.601562 9.601562 C 21.601562 9.378906 21.421875 9.199219 21.199219 9.199219 C 20.980469 9.199219 20.800781 9.378906 20.800781 9.601562 L 20.800781 10 L 20.398438 10 L 20.398438 6.800781 L 18.800781 6.800781 L 18.800781 5.601562 L 16.398438 5.601562 L 16.398438 10 L 7.601562 10 L 7.601562 5.601562 L 5.199219 5.601562 L 5.199219 6.800781 L 3.601562 6.800781 L 3.601562 10 L 3.199219 10 L 3.199219 9.601562 C 3.199219 9.378906 3.019531 9.199219 2.800781 9.199219 C 2.578125 9.199219 2.398438 9.378906 2.398438 9.601562 L 2.398438 10 L 2 10 L 2 9.601562 C 2 9.378906 1.820312 9.199219 1.601562 9.199219 C 1.378906 9.199219 1.199219 9.378906 1.199219 9.601562 L 1.199219 10 L 0.710938 10 C 0.320312 10 0 10.320312 0 10.710938 L 0 13.289062 C 0 13.679688 0.320312 14 0.710938 14 L 1.199219 14 L 1.199219 14.398438 C 1.199219 14.621094 1.378906 14.800781 1.601562 14.800781 C 1.820312 14.800781 2 14.621094 2 14.398438 L 2 14 L 2.398438 14 L 2.398438 14.398438 C 2.398438 14.621094 2.578125 14.800781 2.800781 14.800781 C 3.019531 14.800781 3.199219 14.621094 3.199219 14.398438 L 3.199219 14 L 3.601562 14 L 3.601562 17.199219 L 5.199219 17.199219 L 5.199219 18.398438 L 7.601562 18.398438 L 7.601562 14 L 16.398438 14 L 16.398438 18.398438 L 18.800781 18.398438 L 18.800781 17.199219 L 20.398438 17.199219 L 20.398438 14 L 20.800781 14 L 20.800781 14.398438 C 20.800781 14.621094 20.980469 14.800781 21.199219 14.800781 C 21.421875 14.800781 21.601562 14.621094 21.601562 14.398438 L 21.601562 14 L 22 14 L 22 14.398438 C 22 14.621094 22.179688 14.800781 22.398438 14.800781 C 22.621094 14.800781 22.800781 14.621094 22.800781 14.398438 L 22.800781 14 L 23.289062 14 C 23.679688 14 24 13.679688 24 13.289062 L 24 10.710938 C 24 10.320312 23.679688 10 23.289062 10 Z M 3.601562 13.199219 L 0.800781 13.199219 L 0.800781 10.800781 L 3.601562 10.800781 Z M 5.199219 16.398438 L 4.398438 16.398438 L 4.398438 7.601562 L 5.199219 7.601562 Z M 6.800781 10 L 6.800781 17.601562 L 6 17.601562 L 6 6.398438 L 6.800781 6.398438 Z M 16.398438 13.199219 L 14 13.199219 C 14 12.980469 13.820312 12.800781 13.601562 12.800781 C 13.378906 12.800781 13.199219 12.980469 13.199219 13.199219 L 12.398438 13.199219 C 12.398438 12.980469 12.222656 12.800781 12 12.800781 C 11.777344 12.800781 11.601562 12.980469 11.601562 13.199219 L 10.800781 13.199219 C 10.800781 12.980469 10.621094 12.800781 10.398438 12.800781 C 10.179688 12.800781 10 12.980469 10 13.199219 L 7.601562 13.199219 L 7.601562 10.800781 L 9.199219 10.800781 C 9.199219 11.019531 9.378906 11.199219 9.601562 11.199219 C 9.820312 11.199219 10 11.019531 10 10.800781 L 10.800781 10.800781 C 10.800781 11.019531 10.980469 11.199219 11.199219 11.199219 C 11.421875 11.199219 11.601562 11.019531 11.601562 10.800781 L 12.398438 10.800781 C 12.398438 11.019531 12.578125 11.199219 12.800781 11.199219 C 13.019531 11.199219 13.199219 11.019531 13.199219 10.800781 L 14 10.800781 C 14 11.019531 14.179688 11.199219 14.398438 11.199219 C 14.621094 11.199219 14.800781 11.019531 14.800781 10.800781 L 16.398438 10.800781 Z M 18 6.800781 L 18 17.601562 L 17.199219 17.601562 L 17.199219 6.398438 L 18 6.398438 Z M 19.601562 10 L 19.601562 16.398438 L 18.800781 16.398438 L 18.800781 7.601562 L 19.601562 7.601562 Z M 23.199219 13.199219 L 20.398438 13.199219 L 20.398438 10.800781 L 23.199219 10.800781 Z M 23.199219 13.199219"/>
    <path d="M22 11.199219L22.800781 11.199219 22.800781 12.800781 22 12.800781zM20.800781 11.199219L21.601562 11.199219 21.601562 12.800781 20.800781 12.800781zM20.800781 11.199219"/>
</svg>

<svg xmlns="http://www.w3.org/2000/svg" width="32" height="32" viewBox="0 0 24 24">
    <path d="M10.8 11.602a.401.401 0 1 1-.801-.005.401.401 0 0 1 .802.005zm0 0M12.398 11.602a.398.398 0 1 1-.796 0 .398.398 0 1 1 .796 0zm0 0M10 12.398a.401.401 0 1 1-.802.003.401.401 0 0 1 .802-.003zm0 0M11.602 12.398a.401.401 0 1 1 0 0zm0 0M13.2 12.398a.401.401 0 1 1-.803.003.401.401 0 0 1 .802-.003zm0 0M14.8 12.398a.401.401 0 1 1 0 0zm0 0M14 11.602a.4.4 0 1 1-.8-.004.4.4 0 0 1 .8.004zm0 0M1.2 11.2H2v1.6h-.8zm0 0M2.398 11.2H3.2v1.6h-.8zm0 0"/>
    <path d="M23.29 10h-.49v-.398a.401.401 0 0 0-.8 0V10h-.398v-.398a.401.401 0 0 0-.8 0L20.8 10h-.403V6.8h-1.597V5.603h-2.403V10H7.602V5.602H5.199V6.8H3.602V10h-.403v-.398a.401.401 0 1 0-.8 0V10H2v-.398a.401.401 0 1 0-.8 0V10H.71c-.39 0-.71.32-.71.71v2.58c0 .39.32.71.71.71h.49v.398a.401.401 0 0 0 .8 0V14h.398v.398a.401.401 0 0 0 .8 0L3.2 14h.403v3.2h1.597v1.198h2.403V14h8.796v4.398h2.403V17.2h1.597V14h.403v.398a.401.401 0 1 0 .8 0V14H22v.398a.401.401 0 1 0 .8 0V14h.49c.39 0 .71-.32.71-.71v-2.58c0-.39-.32-.71-.71-.71zM3.601 13.2H.8v-2.4h2.8zm1.597 3.198h-.8V7.602h.8zM6.801 10v7.602H6V6.398h.8zm9.597 3.2H14a.4.4 0 0 0-.8 0h-.802a.398.398 0 1 0-.796 0H10.8a.401.401 0 0 0-.801 0H7.602v-2.4h1.597a.401.401 0 0 0 .801 0h.8a.4.4 0 0 0 .802 0h.796a.401.401 0 0 0 .801 0H14a.4.4 0 0 0 .8 0h1.598zM18 6.8v10.802h-.8V6.398h.8zm1.602 3.2v6.398H18.8V7.602h.8zm3.597 3.2h-2.8v-2.4h2.8zm0 0"/>
    <path d="M22 11.2h.8v1.6H22zm0 0M20.8 11.2h.802v1.6H20.8zm0 0"/>
</svg>
